src/symbols/alphanum/1F18E.svg

<svg id="emoji" viewBox="0 0 72 72" xmlns="http://www.w3.org/2000/svg">
  <g id="grid">
    <path fill="#b3b3b3" d="M68,4V68H4V4H68m4-4H0V72H72V0Z"/>
    <path fill="none" stroke="#00a5ff" stroke-miterlimit="10" stroke-width="0.1" d="M12.923,10.9583H59.0769A1.9231,1.9231,0,0,1,61,12.8814V59.0352a1.9231,1.9231,0,0,1-1.9231,1.9231H12.9231A1.9231,1.9231,0,0,1,11,59.0352V12.8813A1.923,1.923,0,0,1,12.923,10.9583Z"/>
    <rect x="16" y="4" rx="2.2537" width="40" height="64" fill="none" stroke="#00a5ff" stroke-miterlimit="10" stroke-width="0.1"/>
    <rect x="16" y="4" rx="2.2537" width="40" height="64" transform="translate(72) rotate(90)" fill="none" stroke="#00a5ff" stroke-miterlimit="10" stroke-width="0.1"/>
    <circle cx="36" cy="36" r="29" fill="none" stroke="#00a5ff" stroke-miterlimit="10" stroke-width="0.1"/>
    <rect x="11" y="11.9583" rx="1.9231" width="50" height="50" fill="none" stroke="#00a5ff" stroke-miterlimit="10" stroke-width="0.1"/>
  </g>
  <g id="line-supplement">
    <g id="AB_Button">
      <path fill="none" stroke="#000" stroke-linejoin="round" stroke-width="2" d="M59.0349,60.1373h-46.07A.9679.9679,0,0,1,12,59.1722v-46.07a.9679.9679,0,0,1,.9651-.9651h46.07A.9679.9679,0,0,1,60,13.1024v46.07A.9679.9679,0,0,1,59.0349,60.1373Z"/>
      <g>
        <g>
          <polyline fill="none" stroke="#000" stroke-linecap="round" stroke-linejoin="round" stroke-width="2" points="33.287 43.637 26.858 28.637 20.43 43.637"/>
          <line x1="22.5724" x2="31.1438" y1="40.0457" y2="40.0457" fill="none" stroke="#000" stroke-linecap="round" stroke-linejoin="round" stroke-width="2"/>
        </g>
        <g>
          <path fill="none" stroke="#000" stroke-linecap="round" stroke-linejoin="round" stroke-width="2" d="M46.6551,36.1373h-5.72V28.6654h5.72a3.736,3.736,0,0,1,3.736,3.736h0A3.7359,3.7359,0,0,1,46.6551,36.1373Z"/>
          <path fill="none" stroke="#000" stroke-linecap="round" stroke-linejoin="round" stroke-width="2" d="M46.6551,43.6094h-5.72V36.1373h5.72a3.736,3.736,0,0,1,3.736,3.736h0A3.7361,3.7361,0,0,1,46.6551,43.6094Z"/>
        </g>
      </g>
    </g>
  </g>
  <g id="color">
    <g id="color-2">
      <path fill="#d22f27" d="M59.0349,60.1372h-46.07A.9679.9679,0,0,1,12,59.1721v-46.07a.9679.9679,0,0,1,.9651-.9651h46.07A.9679.9679,0,0,1,60,13.1023v46.07A.9679.9679,0,0,1,59.0349,60.1372Z"/>
    </g>
  </g>
  <g id="line"/>
  <g id="color-foreground">
    <g id="AB_Button-2">
      <path fill="none" stroke="#fff" stroke-linejoin="round" stroke-width="2" d="M59.0349,60.1372h-46.07A.9679.9679,0,0,1,12,59.1721v-46.07a.9679.9679,0,0,1,.9651-.9651h46.07A.9679.9679,0,0,1,60,13.1023v46.07A.9679.9679,0,0,1,59.0349,60.1372Z"/>
      <g>
        <g>
          <polyline fill="none" stroke="#fff" stroke-linecap="round" stroke-linejoin="round" stroke-width="2" points="33.287 43.637 26.858 28.637 20.43 43.637"/>
          <line x1="22.5724" x2="31.1438" y1="40.0456" y2="40.0456" fill="none" stroke="#fff" stroke-linecap="round" stroke-linejoin="round" stroke-width="2"/>
        </g>
        <g>
          <path fill="none" stroke="#fff" stroke-linecap="round" stroke-linejoin="round" stroke-width="2" d="M46.6551,36.1372h-5.72v-7.472h5.72a3.7361,3.7361,0,0,1,3.736,3.7361h0A3.7359,3.7359,0,0,1,46.6551,36.1372Z"/>
          <path fill="none" stroke="#fff" stroke-linecap="round" stroke-linejoin="round" stroke-width="2" d="M46.6551,43.6093h-5.72V36.1372h5.72a3.736,3.736,0,0,1,3.736,3.736h0A3.7361,3.7361,0,0,1,46.6551,43.6093Z"/>
        </g>
      </g>
    </g>
  </g>
</svg>

<svg viewBox="0 0 72 72" xmlns="http://www.w3.org/2000/svg"><path fill="#b3b3b3" d="M68 4v64H4V4h64m4-4H0v72h72V0z"/><path fill="none" stroke="#00a5ff" stroke-miterlimit="10" stroke-width=".1" d="M12.923 10.958h46.154A1.923 1.923 0 0161 12.881v46.154a1.923 1.923 0 01-1.923 1.923H12.923A1.923 1.923 0 0111 59.035V12.881a1.923 1.923 0 011.923-1.923z"/><rect x="16" y="4" rx="2.254" width="40" height="64" fill="none" stroke="#00a5ff" stroke-miterlimit="10" stroke-width=".1"/><rect x="16" y="4" rx="2.254" width="40" height="64" transform="rotate(90 36 36)" fill="none" stroke="#00a5ff" stroke-miterlimit="10" stroke-width=".1"/><circle cx="36" cy="36" r="29" fill="none" stroke="#00a5ff" stroke-miterlimit="10" stroke-width=".1"/><rect x="11" y="11.958" rx="1.923" width="50" height="50" fill="none" stroke="#00a5ff" stroke-miterlimit="10" stroke-width=".1"/><g stroke-linecap="round" stroke-miterlimit="10" stroke-width="6" stroke="#fff" fill="none" stroke-linejoin="round"><path d="M59.035 60.137h-46.07a.968.968 0 01-.965-.965v-46.07a.968.968 0 01.965-.965h46.07a.968.968 0 01.965.965v46.07a.968.968 0 01-.965.965z"/><path d="M33.287 43.637l-6.429-15-6.428 15m2.142-3.591h8.572M46.655 36.137h-5.72v-7.472h5.72a3.736 3.736 0 013.736 3.736h0a3.736 3.736 0 01-3.736 3.736zm0 7.473h-5.72v-7.473h5.72a3.736 3.736 0 013.736 3.736h0a3.736 3.736 0 01-3.736 3.736z"/></g><g fill="none" stroke="#000" stroke-linejoin="round" stroke-width="2"><path d="M59.035 60.137h-46.07a.968.968 0 01-.965-.965v-46.07a.968.968 0 01.965-.965h46.07a.968.968 0 01.965.965v46.07a.968.968 0 01-.965.965z"/><g stroke-linecap="round"><path d="M33.287 43.637l-6.429-15-6.428 15m2.142-3.591h8.572M46.655 36.137h-5.72v-7.472h5.72a3.736 3.736 0 013.736 3.736h0a3.736 3.736 0 01-3.736 3.736zm0 7.473h-5.72v-7.473h5.72a3.736 3.736 0 013.736 3.736h0a3.736 3.736 0 01-3.736 3.736z"/></g></g><path fill="#d22f27" d="M59.035 60.137h-46.07a.968.968 0 01-.965-.965v-46.07a.968.968 0 01.965-.965h46.07a.968.968 0 01.965.965v46.07a.968.968 0 01-.965.965z"/><g fill="none" stroke="#fff" stroke-linejoin="round" stroke-width="2"><path d="M59.035 60.137h-46.07a.968.968 0 01-.965-.965v-46.07a.968.968 0 01.965-.965h46.07a.968.968 0 01.965.965v46.07a.968.968 0 01-.965.965z"/><g stroke-linecap="round"><path d="M33.287 43.637l-6.429-15-6.428 15m2.142-3.591h8.572M46.655 36.137h-5.72v-7.472h5.72a3.736 3.736 0 013.736 3.736h0a3.736 3.736 0 01-3.736 3.736zm0 7.473h-5.72v-7.473h5.72a3.736 3.736 0 013.736 3.736h0a3.736 3.736 0 01-3.736 3.736z"/></g></g></svg>
